dist/assets/images/icons/calendar.svg

<svg width="27" height="28" viewBox="0 0 27 28" fill="none" xmlns="http://www.w3.org/2000/svg">
<path fill-rule="evenodd" clip-rule="evenodd" d="M20.3607 16.7541C20.4345 16.6776 20.582 16.6011 20.7296 16.6011C20.8771 16.6011 21.0247 16.6776 21.0984 16.7541C21.1722 16.8306 21.1722 16.9836 21.1722 17.1366C21.1722 17.2131 21.0984 17.4426 21.0984 17.5191C21.0247 17.5956 20.8771 17.5956 20.7296 17.5956C20.582 17.5956 20.4345 17.5191 20.3607 17.5191C20.2869 17.4426 20.2131 17.2131 20.2131 17.1366C20.1393 16.9836 20.2131 16.9071 20.3607 16.7541ZM19.4755 18.5136C19.7705 18.8197 20.2132 19.0492 20.7296 19.0492C21.246 19.0492 21.6886 18.8962 21.9836 18.5136C22.2787 18.2076 22.5 17.7486 22.5 17.2131C22.5 16.6776 22.3525 16.2186 21.9836 15.9126C21.6886 15.6066 21.246 15.3771 20.7296 15.3771C20.2132 15.3771 19.7705 15.6066 19.4755 15.9126C19.1804 16.2186 18.959 16.6776 18.959 17.2131C18.959 17.6721 19.1066 18.1311 19.4755 18.5136ZM15.5656 16.7541C15.6394 16.6776 15.7869 16.6011 15.8607 16.6011C16.0082 16.6011 16.1558 16.6776 16.2295 16.7541C16.3033 16.8306 16.3771 16.9836 16.3771 17.1366C16.3771 17.2131 16.3033 17.4426 16.2295 17.5191C16.1558 17.5956 16.0082 17.5956 15.8607 17.5956C15.7869 17.5956 15.5656 17.5191 15.5656 17.5191C15.4919 17.4426 15.4181 17.2131 15.4181 17.1366C15.4181 16.9836 15.4919 16.9071 15.5656 16.7541ZM14.6803 18.5136C14.9754 18.8197 15.418 19.0492 15.8607 19.0492C16.3771 19.0492 16.8197 18.8962 17.1147 18.5136C17.4098 18.2076 17.6312 17.7486 17.6312 17.2131C17.6312 16.6776 17.4098 16.2186 17.1147 15.9126C16.8197 15.6066 16.3771 15.3771 15.8607 15.3771C15.418 15.3771 14.9016 15.6066 14.6803 15.9126C14.3852 16.2186 14.164 16.6776 14.164 17.2131C14.164 17.6721 14.3852 18.1311 14.6803 18.5136ZM5.90157 21.6503C5.97534 21.5738 6.1229 21.4973 6.27044 21.4973C6.41799 21.4973 6.56555 21.5738 6.63932 21.6503C6.71309 21.7268 6.78689 21.8798 6.78689 22.0328C6.78689 22.1093 6.71309 22.3388 6.63932 22.4153C6.56555 22.4918 6.41799 22.4918 6.27044 22.4918C6.1229 22.4918 5.97534 22.4153 5.90157 22.4153C5.8278 22.3388 5.82784 22.1093 5.82784 22.0328C5.82784 21.8798 5.90157 21.8033 5.90157 21.6503ZM5.0902 23.3333C5.38528 23.6393 5.82789 23.8688 6.34429 23.8688C6.86068 23.8688 7.30329 23.7158 7.59838 23.3333C7.89346 23.0273 8.11471 22.5683 8.11471 22.0328C8.11471 21.4973 7.96723 21.0382 7.59838 20.7322C7.30329 20.4262 6.86068 20.1967 6.34429 20.1967C5.82789 20.1967 5.38528 20.3497 5.0902 20.7322C4.79511 21.0382 4.57375 21.4973 4.57375 22.0328C4.57375 22.5683 4.72134 23.0273 5.0902 23.3333ZM5.90157 16.7541C5.97534 16.6776 6.1229 16.6011 6.27044 16.6011C6.41799 16.6011 6.56555 16.6776 6.63932 16.7541C6.71309 16.8306 6.78689 16.9836 6.78689 17.1366C6.78689 17.2131 6.71309 17.4426 6.63932 17.5191C6.56555 17.5956 6.41799 17.5956 6.27044 17.5956C6.1229 17.5956 5.97534 17.5191 5.90157 17.5191C5.8278 17.4426 5.82784 17.2131 5.82784 17.1366C5.82784 16.9836 5.90157 16.9071 5.90157 16.7541ZM5.0902 18.5136C5.38528 18.8197 5.82789 19.0492 6.34429 19.0492C6.86068 19.0492 7.30329 18.8962 7.59838 18.5136C7.89346 18.2076 8.11471 17.7486 8.11471 17.2131C8.11471 16.6776 7.96723 16.2186 7.59838 15.9126C7.30329 15.6066 6.86068 15.3771 6.34429 15.3771C5.82789 15.3771 5.38528 15.6066 5.0902 15.9126C4.79511 16.2186 4.57375 16.6776 4.57375 17.2131C4.57375 17.6721 4.72134 18.1311 5.0902 18.5136ZM15.5656 21.6503C15.6394 21.5738 15.7869 21.4973 15.8607 21.4973C16.0082 21.4973 16.1558 21.5738 16.2295 21.6503C16.3033 21.7268 16.3771 21.8798 16.3771 22.0328C16.3771 22.1093 16.3033 22.3388 16.2295 22.4153C16.1558 22.4918 16.0082 22.4918 15.8607 22.4918C15.7869 22.4918 15.5656 22.4153 15.5656 22.4153C15.4919 22.3388 15.4181 22.1093 15.4181 22.0328C15.4181 21.8798 15.4919 21.8033 15.5656 21.6503ZM14.6803 23.3333C14.9754 23.6393 15.418 23.8688 15.8607 23.8688C16.3771 23.8688 16.8197 23.7158 17.1147 23.3333C17.4098 23.0273 17.6312 22.5683 17.6312 22.0328C17.6312 21.4973 17.4098 21.0382 17.1147 20.7322C16.8197 20.4262 16.3771 20.1967 15.8607 20.1967C15.418 20.1967 14.9016 20.3497 14.6803 20.7322C14.3852 21.0382 14.164 21.4973 14.164 22.0328C14.164 22.5683 14.3852 23.0273 14.6803 23.3333ZM24.9344 7.11476H2.1393V2.14208H4.13114V3.74863C4.13114 4.36065 4.64753 4.81967 5.16393 4.81967C5.75409 4.81967 6.19671 4.36065 6.19671 3.74863V2.14208H9.66395V3.74863C9.66395 4.36065 10.1066 4.81967 10.6967 4.81967C11.2131 4.81967 11.7295 4.36065 11.7295 3.74863V2.14208H15.1968V3.74863C15.1968 4.36065 15.7131 4.81967 16.2295 4.81967C16.8197 4.81967 17.2623 4.36065 17.2623 3.74863V2.14208H20.7296V3.74863C20.7296 4.36065 21.2459 4.81967 21.7623 4.81967C22.2787 4.81967 22.7951 4.36065 22.7951 3.74863V2.14208H24.787V7.11476H24.9344ZM24.9344 25.7814H2.1393V8.4153H24.9344V25.7814ZM25.9672 0H1.03279C0.44262 0 0 0.459012 0 1.07103V26.929C0 27.541 0.44262 28 1.03279 28H25.9672C26.5574 28 27 27.541 27 26.929V1.07103C27 0.459012 26.5574 0 25.9672 0ZM10.7705 21.6503C10.8442 21.5738 10.9918 21.4973 11.1393 21.4973C11.2131 21.4973 11.4344 21.5738 11.4344 21.6503C11.5081 21.7268 11.5819 21.8798 11.5819 22.0328C11.5819 22.1093 11.5081 22.3388 11.4344 22.4153C11.3606 22.4918 11.2131 22.4918 11.1393 22.4918C10.9918 22.4918 10.8442 22.4153 10.7705 22.4153C10.6967 22.3388 10.623 22.1093 10.623 22.0328C10.623 21.8798 10.6229 21.8033 10.7705 21.6503ZM9.88525 23.3333C10.1803 23.6393 10.6229 23.8688 11.1393 23.8688C11.6557 23.8688 12.0983 23.7158 12.3934 23.3333C12.6885 23.0273 12.9099 22.5683 12.9099 22.0328C12.9099 21.4973 12.6885 21.0382 12.3934 20.7322C12.0983 20.4262 11.6557 20.1967 11.1393 20.1967C10.6229 20.1967 10.1803 20.3497 9.88525 20.7322C9.59017 21.0382 9.3688 21.4973 9.3688 22.0328C9.29503 22.5683 9.5164 23.0273 9.88525 23.3333ZM15.5656 11.8579C15.6394 11.7814 15.7869 11.7049 15.8607 11.7049C16.0082 11.7049 16.1558 11.7814 16.2295 11.8579C16.3033 11.9344 16.3771 12.0874 16.3771 12.2404C16.3771 12.3934 16.3033 12.5464 16.2295 12.6229C16.1558 12.6995 16.0082 12.6995 15.8607 12.6995C15.7869 12.6995 15.5656 12.6229 15.5656 12.6229C15.4919 12.5464 15.4181 12.3934 15.4181 12.2404C15.4181 12.0874 15.4919 12.0109 15.5656 11.8579ZM14.6803 13.6175C14.9754 13.9235 15.418 14.153 15.8607 14.153C16.3771 14.153 16.8197 14 17.1147 13.6175C17.4098 13.3115 17.6312 12.8525 17.6312 12.3169C17.6312 11.7814 17.4098 11.3224 17.1147 11.0164C16.8197 10.7104 16.3771 10.4809 15.8607 10.4809C15.418 10.4809 14.9016 10.7104 14.6803 11.0164C14.3852 11.3224 14.164 11.7814 14.164 12.3169C14.164 12.8525 14.3852 13.235 14.6803 13.6175ZM20.3607 11.8579C20.4345 11.7814 20.582 11.7049 20.7296 11.7049C20.8771 11.7049 21.0247 11.7814 21.0984 11.8579C21.1722 11.9344 21.1722 12.0874 21.1722 12.2404C21.1722 12.3934 21.0984 12.5464 21.0984 12.6229C21.0247 12.6995 20.8771 12.6995 20.7296 12.6995C20.582 12.6995 20.4345 12.6229 20.3607 12.6229C20.2869 12.5464 20.2131 12.3934 20.2131 12.2404C20.2131 12.0874 20.2131 12.0109 20.3607 11.8579ZM19.4755 13.6175C19.7705 13.9235 20.2132 14.153 20.7296 14.153C21.246 14.153 21.6886 14 21.9836 13.6175C22.2787 13.235 22.5 12.8525 22.5 12.3169C22.5 11.7814 22.3525 11.3224 21.9836 11.0164C21.6148 10.7104 21.246 10.4809 20.7296 10.4809C20.2132 10.4809 19.7705 10.7104 19.4755 11.0164C19.1804 11.3224 18.959 11.7814 18.959 12.3169C18.959 12.8525 19.1066 13.235 19.4755 13.6175ZM10.7705 16.7541C10.8442 16.6776 10.9918 16.6011 11.1393 16.6011C11.2131 16.6011 11.4344 16.6776 11.4344 16.7541C11.5081 16.8306 11.5819 16.9836 11.5819 17.1366C11.5819 17.2131 11.5081 17.4426 11.4344 17.5191C11.3606 17.5956 11.2131 17.5956 11.1393 17.5956C10.9918 17.5956 10.8442 17.5191 10.7705 17.5191C10.6967 17.4426 10.623 17.2131 10.623 17.1366C10.623 16.9836 10.6229 16.9071 10.7705 16.7541ZM9.88525 18.5136C10.1803 18.8197 10.6229 19.0492 11.1393 19.0492C11.6557 19.0492 12.0983 18.8962 12.3934 18.5136C12.6885 18.2076 12.9099 17.7486 12.9099 17.2131C12.9099 16.6776 12.6885 16.2186 12.3934 15.9126C12.0983 15.6066 11.6557 15.3771 11.1393 15.3771C10.6229 15.3771 10.1803 15.6066 9.88525 15.9126C9.59017 16.2186 9.3688 16.6776 9.3688 17.2131C9.29503 17.6721 9.5164 18.1311 9.88525 18.5136ZM10.7705 11.8579C10.8442 11.7814 10.9918 11.7049 11.1393 11.7049C11.2131 11.7049 11.4344 11.7814 11.4344 11.8579C11.5081 11.9344 11.5819 12.0874 11.5819 12.2404C11.5819 12.3934 11.5081 12.5464 11.4344 12.6229C11.3606 12.6995 11.2131 12.6995 11.1393 12.6995C10.9918 12.6995 10.8442 12.6229 10.7705 12.6229C10.6967 12.5464 10.623 12.3934 10.623 12.2404C10.623 12.0874 10.6229 12.0109 10.7705 11.8579ZM9.88525 13.6175C10.1803 13.9235 10.6229 14.153 11.1393 14.153C11.6557 14.153 12.0983 14 12.3934 13.6175C12.6885 13.235 12.9099 12.8525 12.9099 12.3169C12.9099 11.7814 12.6885 11.3224 12.3934 11.0164C12.0983 10.7104 11.6557 10.4809 11.1393 10.4809C10.6229 10.4809 10.1803 10.7104 9.88525 11.0164C9.59017 11.3224 9.3688 11.7814 9.3688 12.3169C9.3688 12.8525 9.5164 13.235 9.88525 13.6175Z" fill="#503E3F"/>
</svg>

<svg width="27" height="28" fill="none" xmlns="http://www.w3.org/2000/svg"><path fill-rule="evenodd" clip-rule="evenodd" d="M20.36 16.754a.553.553 0 01.37-.153c.147 0 .295.077.368.153.074.077.074.23.074.383 0 .076-.074.306-.074.382-.073.077-.22.077-.368.077s-.296-.077-.37-.077c-.073-.076-.147-.306-.147-.382-.074-.153 0-.23.148-.383zm-.884 1.76c.294.306.737.535 1.254.535.516 0 .959-.153 1.254-.535a1.88 1.88 0 00.516-1.3c0-.536-.148-.995-.516-1.301a1.748 1.748 0 00-1.254-.536c-.517 0-.96.23-1.255.536a1.88 1.88 0 00-.516 1.3c0 .46.148.918.517 1.3zm-3.91-1.76c.073-.076.22-.153.295-.153.147 0 .295.077.369.153.073.077.147.23.147.383 0 .076-.074.306-.147.382-.074.077-.222.077-.37.077-.073 0-.294-.077-.294-.077-.074-.076-.148-.306-.148-.382 0-.153.074-.23.148-.383zm-.886 1.76c.295.306.738.535 1.18.535.517 0 .96-.153 1.255-.535a1.88 1.88 0 00.516-1.3 1.88 1.88 0 00-.516-1.301 1.748 1.748 0 00-1.254-.536c-.443 0-.96.23-1.18.536a1.88 1.88 0 00-.517 1.3c0 .46.221.918.516 1.3zM5.902 21.65a.553.553 0 01.368-.153c.148 0 .296.077.37.153.073.077.147.23.147.383 0 .076-.074.306-.148.382-.073.077-.221.077-.369.077-.147 0-.295-.077-.368-.077-.074-.076-.074-.306-.074-.382 0-.153.074-.23.074-.383zm-.812 1.683a1.75 1.75 0 001.254.536c.517 0 .96-.153 1.254-.536a1.88 1.88 0 00.517-1.3c0-.536-.148-.995-.517-1.3a1.749 1.749 0 00-1.254-.536c-.516 0-.959.153-1.254.535a1.88 1.88 0 00-.516 1.3c0 .536.147.995.516 1.301zm.812-6.579a.553.553 0 01.368-.153c.148 0 .296.077.37.153.073.077.147.23.147.383 0 .076-.074.306-.148.382-.073.077-.221.077-.369.077-.147 0-.295-.077-.368-.077-.074-.076-.074-.306-.074-.382 0-.153.074-.23.074-.383zm-.812 1.76c.295.306.738.535 1.254.535.517 0 .96-.153 1.254-.535a1.88 1.88 0 00.517-1.3c0-.536-.148-.995-.517-1.301a1.749 1.749 0 00-1.254-.536c-.516 0-.959.23-1.254.536a1.88 1.88 0 00-.516 1.3c0 .46.147.918.516 1.3zm10.476 3.136c.073-.076.22-.153.295-.153.147 0 .295.077.369.153.073.077.147.23.147.383 0 .076-.074.306-.147.382-.074.077-.222.077-.37.077-.073 0-.294-.077-.294-.077-.074-.076-.148-.306-.148-.382 0-.153.074-.23.148-.383zm-.886 1.683c.295.306.738.536 1.18.536.517 0 .96-.153 1.255-.536a1.88 1.88 0 00.516-1.3 1.88 1.88 0 00-.516-1.3 1.748 1.748 0 00-1.254-.536c-.443 0-.96.153-1.18.535a1.88 1.88 0 00-.517 1.3c0 .536.221.995.516 1.301zM24.934 7.115H2.14V2.142h1.992V3.75c0 .612.517 1.07 1.033 1.07.59 0 1.033-.458 1.033-1.07V2.142h3.467V3.75c0 .612.443 1.07 1.033 1.07.516 0 1.033-.458 1.033-1.07V2.142h3.467V3.75c0 .612.516 1.07 1.033 1.07.59 0 1.032-.458 1.032-1.07V2.142h3.468V3.75c0 .612.516 1.07 1.032 1.07.517 0 1.033-.458 1.033-1.07V2.142h1.992v4.973h.147zm0 18.666H2.14V8.415h22.795v17.366zM25.967 0H1.033C.443 0 0 .459 0 1.071v25.858C0 27.541.443 28 1.033 28h24.934c.59 0 1.033-.459 1.033-1.071V1.071C27 .459 26.557 0 25.967 0zM10.771 21.65a.553.553 0 01.368-.153c.074 0 .295.077.295.153.074.077.148.23.148.383 0 .076-.074.306-.148.382-.073.077-.22.077-.295.077-.147 0-.295-.077-.368-.077-.074-.076-.148-.306-.148-.382 0-.153 0-.23.148-.383zm-.886 1.683a1.75 1.75 0 001.254.536c.517 0 .96-.153 1.254-.536a1.88 1.88 0 00.517-1.3 1.88 1.88 0 00-.517-1.3 1.749 1.749 0 00-1.254-.536c-.516 0-.959.153-1.254.535a1.88 1.88 0 00-.516 1.3c-.074.536.147.995.516 1.301zm5.68-11.475c.074-.077.222-.153.296-.153.147 0 .295.076.369.153a.6.6 0 01.147.382.596.596 0 01-.147.383c-.074.077-.222.077-.37.077-.073 0-.294-.077-.294-.077a.596.596 0 01-.148-.383c0-.153.074-.23.148-.382zm-.885 1.76c.295.306.738.535 1.18.535.517 0 .96-.153 1.255-.536a1.88 1.88 0 00.516-1.3 1.88 1.88 0 00-.516-1.3 1.748 1.748 0 00-1.254-.536c-.443 0-.96.23-1.18.535a1.88 1.88 0 00-.517 1.3c0 .536.221.919.516 1.301zm5.68-1.76a.553.553 0 01.37-.153c.147 0 .295.076.368.153.074.076.074.23.074.382 0 .153-.074.306-.074.383-.073.077-.22.077-.368.077s-.296-.077-.37-.077a.596.596 0 01-.147-.383c0-.153 0-.23.148-.382zm-.884 1.76c.294.306.737.535 1.254.535.516 0 .959-.153 1.254-.536.295-.382.516-.765.516-1.3 0-.536-.148-.995-.516-1.3-.37-.307-.738-.536-1.254-.536-.517 0-.96.23-1.255.535a1.88 1.88 0 00-.516 1.3c0 .536.148.919.517 1.301zm-8.705 3.136a.553.553 0 01.368-.153c.074 0 .295.077.295.153.074.077.148.23.148.383 0 .076-.074.306-.148.382-.073.077-.22.077-.295.077-.147 0-.295-.077-.368-.077-.074-.076-.148-.306-.148-.382 0-.153 0-.23.148-.383zm-.886 1.76c.295.306.738.535 1.254.535.517 0 .96-.153 1.254-.535a1.88 1.88 0 00.517-1.3 1.88 1.88 0 00-.517-1.301 1.749 1.749 0 00-1.254-.536c-.516 0-.959.23-1.254.536a1.88 1.88 0 00-.516 1.3c-.074.46.147.918.516 1.3zm.886-6.656a.553.553 0 01.368-.153c.074 0 .295.076.295.153.074.076.148.23.148.382a.596.596 0 01-.148.383c-.073.077-.22.077-.295.077-.147 0-.295-.077-.368-.077a.596.596 0 01-.148-.383c0-.153 0-.23.148-.382zm-.886 1.76c.295.306.738.535 1.254.535.517 0 .96-.153 1.254-.536.295-.382.517-.765.517-1.3a1.88 1.88 0 00-.517-1.3 1.749 1.749 0 00-1.254-.536c-.516 0-.959.23-1.254.535a1.88 1.88 0 00-.516 1.3c0 .536.147.919.516 1.301z" fill="#503E3F"/></svg>
